client/src/images/svg/plus.svg

<?xml version="1.0" encoding="UTF-8"?>
<svg xmlns="http://www.w3.org/2000/svg" xmlns:xlink="http://www.w3.org/1999/xlink" width="64pt" height="64pt" viewBox="0 0 64 64" version="1.1">
<g id="surface1479296">
<path style=" stroke:none;fill-rule:nonzero;fill:rgb(100%,100%,100%);fill-opacity:1;" d="M 32 3.027344 C 24.574219 3.027344 17.148438 5.851562 11.5 11.5 C 0.199219 22.800781 0.199219 41.199219 11.5 52.5 C 17.148438 58.148438 24.601562 61 32 61 C 39.398438 61 46.851562 58.148438 52.5 52.5 C 63.800781 41.199219 63.800781 22.800781 52.5 11.5 C 46.851562 5.851562 39.425781 3.027344 32 3.027344 Z M 32 6 C 38.648438 6 45.300781 8.550781 50.402344 13.597656 C 60.5 23.75 60.5 40.25 50.402344 50.402344 C 40.25 60.550781 23.75 60.550781 13.652344 50.402344 C 3.5 40.25 3.5 23.75 13.601562 13.597656 C 18.699219 8.550781 25.351562 6 32 6 Z M 32 21 C 31.148438 21 30.5 21.648438 30.5 22.5 L 30.5 30.5 L 22.5 30.5 C 21.648438 30.5 21 31.148438 21 32 C 21 32.851562 21.648438 33.5 22.5 33.5 L 30.5 33.5 L 30.5 41.5 C 30.5 42.351562 31.148438 43 32 43 C 32.851562 43 33.5 42.351562 33.5 41.5 L 33.5 33.5 L 41.5 33.5 C 42.351562 33.5 43 32.851562 43 32 C 43 31.148438 42.351562 30.5 41.5 30.5 L 33.5 30.5 L 33.5 22.5 C 33.5 21.648438 32.851562 21 32 21 Z M 32 21 "/>
</g>
</svg>

<svg xmlns="http://www.w3.org/2000/svg" width="64pt" height="64pt" viewBox="0 0 64 64"><path d="M32 3.027c-7.426 0-14.852 2.825-20.5 8.473-11.3 11.3-11.3 29.7 0 41A28.977 28.977 0 0032 61a28.977 28.977 0 0020.5-8.5c11.3-11.3 11.3-29.7 0-41C46.852 5.852 39.426 3.027 32 3.027zM32 6c6.648 0 13.3 2.55 18.402 7.598C60.5 23.75 60.5 40.25 50.402 50.402c-10.152 10.149-26.652 10.149-36.75 0C3.5 40.25 3.5 23.75 13.602 13.598 18.699 8.55 25.352 6 32 6zm0 15c-.852 0-1.5.648-1.5 1.5v8h-8c-.852 0-1.5.648-1.5 1.5s.648 1.5 1.5 1.5h8v8c0 .852.648 1.5 1.5 1.5s1.5-.648 1.5-1.5v-8h8c.852 0 1.5-.648 1.5-1.5s-.648-1.5-1.5-1.5h-8v-8c0-.852-.648-1.5-1.5-1.5zm0 0" fill="#fff"/></svg>
